packages/icons/src/components/Icon/assets/small-solid/unpin.svg

<svg width="16" height="16" viewBox="0 0 16 16" fill="none" xmlns="http://www.w3.org/2000/svg">
<path d="M2.55815 1.22366C2.25994 0.925445 1.77643 0.925445 1.47821 1.22366C1.17999 1.52188 1.17999 2.00539 1.47821 2.30361L1.8429 2.6683C1.87395 2.69109 1.90366 2.71652 1.93173 2.74459L13.7852 14.5981C14.084 14.8174 14.5062 14.7919 14.7763 14.5218C15.0746 14.2236 15.0746 13.7401 14.7763 13.4418L11.191 9.85655L12.8262 8.22135C13.3488 7.69875 13.3488 6.85144 12.8262 6.32884L9.67119 3.17377C9.14859 2.65117 8.30129 2.65117 7.7787 3.17377L6.14349 4.80899L2.55815 1.22366Z" fill="black"/>
<path d="M9.63855 12.6113L3.38864 6.36139C2.75573 6.45163 2.13246 6.64833 1.54794 6.95107C0.861791 7.30645 0.835688 8.21736 1.38209 8.76376L3.67821 11.0599L1.78454 12.9536C1.43608 13.302 1.43608 13.867 1.78454 14.2155C2.133 14.5639 2.69796 14.5639 3.04642 14.2155L4.94009 12.3218L7.23619 14.6179C7.78258 15.1643 8.69348 15.1382 9.04886 14.4521C9.35161 13.8675 9.54831 13.2442 9.63855 12.6113Z" fill="black"/>
</svg>

<svg xmlns="http://www.w3.org/2000/svg" width="16" height="16" fill="none" viewBox="0 0 16 16">
    <path fill="#000" d="M2.558 1.224a.764.764 0 0 0-1.08 1.08l.365.364a1 1 0 0 1 .089.077l11.853 11.853a.764.764 0 0 0 .991-1.156l-3.585-3.585 1.635-1.636a1.34 1.34 0 0 0 0-1.892L9.671 3.174a1.34 1.34 0 0 0-1.892 0L6.143 4.809zm7.081 11.387-6.25-6.25a5.8 5.8 0 0 0-1.841.59c-.686.355-.712 1.266-.166 1.813l2.296 2.296-1.893 1.894a.892.892 0 0 0 1.261 1.261l1.894-1.893 2.296 2.296c.547.546 1.457.52 1.813-.166.303-.585.5-1.208.59-1.84"/>
</svg>
